data/icons/scalable/actions/streams-symbolic.svg

<?xml version="1.0" encoding="UTF-8"?>
<svg height="16px" viewBox="0 0 16 16" width="16px" xmlns="http://www.w3.org/2000/svg">
    <g fill="#222222">
        <path d="m 6 4.5 c 0 0.828125 -0.671875 1.5 -1.5 1.5 s -1.5 -0.671875 -1.5 -1.5 s 0.671875 -1.5 1.5 -1.5 s 1.5 0.671875 1.5 1.5 z m 0 0"/>
        <path d="m 0 7.089844 c 0 0.847656 0.335938 1.660156 0.9375 2.261718 l 5.382812 5.382813 c 0.925782 0.925781 2.433594 0.925781 3.359376 0 l 4.964843 -4.964844 c 0.976563 -0.976562 0.976563 -2.5625 0 -3.539062 l -5.417969 -5.417969 c -0.519531 -0.519531 -1.226562 -0.8125 -1.960937 -0.8125 h -3.265625 c -2.207031 0 -4 1.792969 -4 4 z m 4 -5.089844 h 3.265625 c 0.207031 0 0.402344 0.082031 0.546875 0.226562 l 5.417969 5.417969 c 0.203125 0.207031 0.203125 0.503907 0 0.710938 l -4.964844 4.964843 c -0.15625 0.15625 -0.375 0.15625 -0.53125 0 l -5.382813 -5.382812 c -0.226562 -0.226562 -0.351562 -0.53125 -0.351562 -0.847656 v -3.089844 c 0 -1.117188 0.882812 -2 2 -2 z m 0 0"/>
    </g>
</svg>

<svg xmlns="http://www.w3.org/2000/svg" width="16" height="16" viewBox="0 0 16 16"><g fill="#222"><path d="M6 4.5a1.5 1.5 0 1 1-3 0 1.5 1.5 0 0 1 3 0m0 0"/><path d="M0 7.09c0 .848.336 1.66.938 2.262l5.382 5.382a2.38 2.38 0 0 0 3.36 0l4.965-4.964a2.504 2.504 0 0 0 0-3.54L9.227.813A2.78 2.78 0 0 0 7.266 0H4C1.793 0 0 1.793 0 4zM4 2h3.266c.207 0 .402.082.547.227l5.417 5.418a.49.49 0 0 1 0 .71L8.266 13.32a.36.36 0 0 1-.532 0L2.352 7.938A1.2 1.2 0 0 1 2 7.09V4c0-1.117.883-2 2-2m0 0"/></g></svg>
